assets/img/icons/duotone-icons/Media/Music-cloud.svg

<?xml version="1.0" encoding="UTF-8"?>
<svg width="24px" height="24px" viewBox="0 0 24 24" version="1.1" xmlns="http://www.w3.org/2000/svg" xmlns:xlink="http://www.w3.org/1999/xlink">
    <!-- Generator: Sketch 52.2 (67145) - http://www.bohemiancoding.com/sketch -->
    <title>Stockholm-icons / Media / Music-cloud</title>
    <desc>Created with Sketch.</desc>
    <g id="Stockholm-icons-/-Media-/-Music-cloud" stroke="none" stroke-width="1" fill="none" fill-rule="evenodd">
        <rect id="bound" x="0" y="0" width="24" height="24"></rect>
        <path d="M14.9297424,9 L18,9 C21.3137085,9 24,11.6862915 24,15 C24,18.3137085 21.3137085,21 18,21 L9,21 C8.84387716,21 8.68914702,20.9940371 8.53602492,20.9823266 C8.35886438,20.9940469 8.18012741,21 8,21 C3.581722,21 0,17.418278 0,13 C0,8.581722 3.581722,5 8,5 C10.9611294,5 13.5465048,6.60879452 14.9297424,9 Z" id="Combined-Shape" fill="#335EEA" opacity="0.3"></path>
        <path d="M10.5833333,18.5 C9.70888248,18.5 9,17.8919916 9,17.1419753 C9,16.391959 9.70888248,15.7839506 10.5833333,15.7839506 C10.7683909,15.7839506 10.9460333,15.8111809 11.1111111,15.8612248 L11.1111111,12.0925343 C11.1111111,11.8139918 11.2798844,11.5677693 11.5277603,11.484687 L14.5624826,10.5294328 C14.9448163,10.4012833 15.3333333,10.7076449 15.3333333,11.1372801 L15.3333333,12.0925343 C15.3333333,12.4109524 15.0436696,12.6143119 14.8055556,12.6728395 C14.4629575,12.7570489 13.5833278,12.9381188 12.1666667,13.2160494 L12.1666667,17.1697968 C12.1666667,17.2185655 12.1628241,17.2637188 12.1553303,17.3053217 C12.0612659,17.9783191 11.3933298,18.5 10.5833333,18.5 Z" id="Combined-Shape" fill="#335EEA"></path>
    </g>
</svg>

<svg width="24" height="24" viewBox="0 0 24 24" xmlns="http://www.w3.org/2000/svg"><g fill="none" fill-rule="evenodd"><path d="M0 0h24v24H0z"/><path d="M14.93 9H18a6 6 0 110 12H9c-.156 0-.31-.006-.464-.018A8 8 0 1114.93 9z" fill="#335EEA" opacity=".3"/><path d="M10.583 18.5C9.71 18.5 9 17.892 9 17.142c0-.75.709-1.358 1.583-1.358.185 0 .363.027.528.077v-3.768c0-.279.169-.525.417-.608l3.034-.956c.383-.128.771.179.771.608v.956c0 .318-.29.521-.527.58-.343.084-1.223.265-2.64.543v3.954a.765.765 0 01-.01.135c-.095.673-.763 1.195-1.573 1.195z" fill="#335EEA"/></g></svg>
